X:1

T:The Road to Monalea

M:4/4

L:1/8

Q:120

C:Colm O'Donnell

S:Farewell to Evening Dances

R:Reel

P:2

D:Farewell to Evening Dance

Z:David Dahl

K:G

dcAc d3e|dcAG EDD2|cAGA cded|cAGE EDD2|dcAc d3e|

dcAG EGDG|EGAG cded|cAGE EDD2:|

dcAc d2cd|eaag egd2|gede c3d|egag edd2|dcAc d2cd|eaag egd2|

cGGG cded|cAGE EDD2:|

           

ROAD TO NEWBRIDGE, THE. AKA and see “Temperance Reel,” “Teetotaler(‘s Reel).” Irish, Reel. G Major. Standard tuning. ABCD. The title is from the great Kerry fiddler Pádraig O’Keeffe.

